dist/imgs/slack-logo.svg

<svg width="21" height="21" viewBox="0 0 21 21" fill="none" xmlns="http://www.w3.org/2000/svg">
<g clip-path="url(#clip0_10_1030)">
<path fill-rule="evenodd" clip-rule="evenodd" d="M7.83241 -0.000793457C6.72684 4.24247e-05 5.83209 0.917841 5.8329 2.04879C5.83209 3.17974 6.72766 4.09753 7.83323 4.09837H9.83356V2.04962C9.83437 0.918676 8.9388 0.000878306 7.83241 -0.000793457C7.83323 -0.000793457 7.83323 -0.000793457 7.83241 -0.000793457V-0.000793457ZM7.83241 5.46587H2.49984C1.39427 5.46671 0.498697 6.38451 0.499514 7.51546C0.49788 8.6464 1.39345 9.5642 2.49902 9.56587H7.83241C8.93799 9.56504 9.83356 8.64724 9.83274 7.51629C9.83356 6.38451 8.93799 5.46671 7.83241 5.46587Z" fill="#36C5F0"/>
<path fill-rule="evenodd" clip-rule="evenodd" d="M20.4998 7.51625C20.5006 6.3853 19.605 5.4675 18.4994 5.46667C17.3938 5.4675 16.4983 6.3853 16.4991 7.51625V9.56667H18.4994C19.605 9.56583 20.5006 8.64803 20.4998 7.51625ZM15.1664 7.51625V2.04958C15.1672 0.91947 14.2724 0.00167176 13.1668 0C12.0613 0.000835882 11.1657 0.918634 11.1665 2.04958V7.51625C11.1649 8.6472 12.0604 9.56499 13.166 9.56667C14.2716 9.56583 15.1672 8.64803 15.1664 7.51625Z" fill="#2EB67D"/>
<path fill-rule="evenodd" clip-rule="evenodd" d="M13.1661 20.5C14.2717 20.4992 15.1672 19.5814 15.1664 18.4504C15.1672 17.3195 14.2717 16.4017 13.1661 16.4008H11.1658V18.4504C11.165 19.5805 12.0605 20.4983 13.1661 20.5ZM13.1661 15.0325H18.4995C19.6051 15.0317 20.5006 14.1139 20.4998 12.9829C20.5014 11.852 19.6059 10.9342 18.5003 10.9325H13.1669C12.0613 10.9333 11.1658 11.8511 11.1666 12.9821C11.1658 14.1139 12.0605 15.0317 13.1661 15.0325Z" fill="#ECB22E"/>
<path fill-rule="evenodd" clip-rule="evenodd" d="M0.499756 12.9829C0.498939 14.1139 1.39451 15.0317 2.50008 15.0325C3.60566 15.0317 4.50123 14.1139 4.50041 12.9829V10.9333H2.50008C1.39451 10.9342 0.498939 11.852 0.499756 12.9829ZM5.83314 12.9829V18.4496C5.83151 19.5805 6.72708 20.4983 7.83265 20.5C8.93823 20.4992 9.8338 19.5814 9.83298 18.4504V12.9846C9.83461 11.8536 8.93904 10.9358 7.83347 10.9342C6.72708 10.9342 5.83233 11.852 5.83314 12.9829C5.83314 12.9837 5.83314 12.9829 5.83314 12.9829Z" fill="#E01E5A"/>
</g>
<defs>
<clipPath id="clip0_10_1030">
<rect width="20" height="20.5" fill="white" transform="translate(0.499756 -0.000793457)"/>
</clipPath>
</defs>
</svg>

<svg width="21" height="21" fill="none" xmlns="http://www.w3.org/2000/svg"><g clip-path="url(#clip0_10_1030)" fill-rule="evenodd" clip-rule="evenodd"><path d="M7.832 0c-1.105 0-2 .918-2 2.049 0 1.13.896 2.049 2.001 2.05h2v-2.05C9.835.92 8.94.002 7.834 0zm0 5.466H2.5c-1.106 0-2.001.919-2 2.05-.002 1.13.893 2.048 1.999 2.05h5.333c1.106-.001 2.002-.919 2-2.05.002-1.131-.894-2.05-2-2.05z" fill="#36C5F0"/><path d="M20.5 7.516c0-1.13-.895-2.048-2-2.05-1.106.002-2.002.92-2 2.05v2.05h2c1.105 0 2-.918 2-2.05zm-5.334 0V2.05c.001-1.13-.894-2.048-2-2.05-1.105 0-2 .919-2 2.05v5.466c-.001 1.131.894 2.049 2 2.05 1.106 0 2.001-.918 2-2.05z" fill="#2EB67D"/><path d="M13.166 20.5c1.106 0 2.001-.919 2-2.05.001-1.13-.894-2.048-2-2.05h-2v2.05c-.001 1.13.894 2.048 2 2.05zm0-5.467H18.5c1.105-.001 2-.92 2-2.05.001-1.131-.894-2.049-2-2.05h-5.333c-1.106 0-2.001.918-2 2.05-.001 1.13.893 2.049 2 2.05z" fill="#ECB22E"/><path d="M.5 12.983c-.001 1.13.895 2.049 2 2.05 1.106-.001 2.001-.92 2-2.05v-2.05h-2c-1.105.001-2.001.919-2 2.05zm5.333 0v5.467c-.001 1.13.894 2.048 2 2.05 1.105 0 2-.919 2-2.05v-5.465c.002-1.131-.894-2.05-2-2.05-1.106 0-2 .917-2 2.048z" fill="#E01E5A"/></g><defs><clipPath id="clip0_10_1030"><path fill="#fff" transform="translate(.5)" d="M0 0h20v20.5H0z"/></clipPath></defs></svg>
